docs/.gitbook/assets/icon-microphone-disabled-16@light.svg

<svg width="32" height="32" viewBox="0 0 16 16" fill="none" xmlns="http://www.w3.org/2000/svg">
<rect x="0" y="0" width="16" height="16" fill="#fff"/>
<path fill-rule="evenodd" clip-rule="evenodd" d="M3.32405 1.26762C3.05763 0.950458 2.58454 0.90932 2.26738 1.17574C1.95021 1.44216 1.90908 1.91525 2.17549 2.23241L4.2646 4.71944L8.99348 10.3491L12.6755 14.7324C12.9419 15.0496 13.415 15.0907 13.7322 14.8243C14.0493 14.5579 14.0905 14.0848 13.8241 13.7676L10.6534 9.99302C11.4784 9.26097 11.9998 8.19157 11.9998 7.00002V5.00002C11.9998 2.79088 10.2089 1.00002 7.99976 1.00002C6.58903 1.00002 5.35002 1.73 4.63801 2.83186L3.32405 1.26762ZM10.4998 7.00002C10.4998 7.72934 10.1878 8.38617 9.68812 8.84389L5.67818 4.07016C6.04736 3.1492 6.94863 2.50002 7.99976 2.50002C9.38047 2.50002 10.4998 3.61931 10.4998 5.00002V7.00002ZM4.32004 10.55C4.05119 10.2352 3.57808 10.1978 3.26306 10.4665C2.94791 10.7353 2.91033 11.2087 3.17912 11.5238L3.74976 11.0371C3.17912 11.5238 3.17931 11.524 3.17951 11.5243L3.17994 11.5248L3.18091 11.5259L3.18332 11.5287L3.19001 11.5364L3.21081 11.5598C3.22796 11.5789 3.25166 11.6049 3.28175 11.6366C3.34188 11.7 3.42781 11.7869 3.53817 11.8895C3.75836 12.0941 4.07903 12.3639 4.48943 12.6335C5.16476 13.0771 6.10425 13.5335 7.24975 13.6788L7.24974 14.25C7.24974 14.6642 7.58552 15 7.99974 15C8.41395 15 8.74974 14.6642 8.74974 14.25L8.74976 12.9762C8.74976 12.7772 8.67074 12.5865 8.53009 12.4458C8.38944 12.3052 8.19867 12.2262 7.99976 12.2262C6.89198 12.2262 5.97146 11.8123 5.31296 11.3798C4.98538 11.1646 4.73033 10.9496 4.55929 10.7907C4.47405 10.7115 4.41049 10.6469 4.37004 10.6043C4.34983 10.583 4.33547 10.5672 4.32712 10.5579L4.31921 10.549L4.31973 10.5496L4.32004 10.55ZM4.32004 10.55C4.32016 10.5501 4.32028 10.5503 4.32039 10.5504L3.74976 11.0371C4.32039 10.5504 4.32022 10.5502 4.32004 10.55Z" fill="#000"/>
</svg>

<svg xmlns="http://www.w3.org/2000/svg" width="32" height="32" fill="none" viewBox="0 0 16 16"><path fill="#fff" d="M0 0h16v16H0z"/><path fill="#000" fill-rule="evenodd" d="M3.324 1.268a.75.75 0 0 0-1.149.964l2.09 2.487 4.728 5.63 3.682 4.383a.75.75 0 1 0 1.15-.964l-3.172-3.775A4 4 0 0 0 12 7V5a4 4 0 0 0-7.362-2.168zM10.5 7c0 .73-.312 1.386-.812 1.844L5.678 4.07A2.501 2.501 0 0 1 10.5 5zm-6.18 3.55a.75.75 0 0 0-1.14.974l.57-.487-.57.487v.002l.003.003.007.007.02.024.072.077a7.3 7.3 0 0 0 1.208.997c.675.443 1.614.9 2.76 1.045v.571a.75.75 0 0 0 1.5 0v-1.274a.75.75 0 0 0-.75-.75c-1.108 0-2.029-.414-2.687-.846a5.8 5.8 0 0 1-.943-.776l-.043-.046-.008-.009zm0 0-.57.487z" clip-rule="evenodd"/></svg>
